X: 15670
T: Gold Ring, The
R: jig
M: 6/8
K: Dmajor
DB,|:~A,3 DFA|dfd ecA|~B3 AFD|EGF EDB,|
~A,3 DFA|dfd ecA|B/c/dB AFA|1 Bdc d2B,:|2 Bdc d2B||
|:AFA dfa|bgb afd|~g3 ~f3|ede fdB|
AFA dfa|bgb afd|BGB AFA|1 Bdc d2B:|2 Bdc dfe||
|:dAF AFE|DB,A, DFA|~d3 ede|fdB B2c|
dAF AFE|EDC DFA|dcd e/f/gf|1 edc dfe:|2 edc d2B||
|:AFA dfd|~B3 dAF|DEF EDE|FDB, B,2B|
AFA dcd|~B3 dAF|DEF EDE|1 FDC D2B:|2 FDD D2B,||

